X: 1
T: Snar \aa ta \aat
R: R\orospols
O: etter Harald Gullikstad
Z: 1999 John Chambers <jc@trillian.mit.edu>
M: 3/4
L: 1/8
K: D
|: "D"D>F {F}A2 A>B | [BG][AF] {F}A4 | A>d B<G "A7"E>c |1 ~cB/c/ "D"d>B A>F :|2,4 ~cB/c/ "D"d4 :|
|: "D"{f}a>f ge f>d | "G"d>B BG [BG]>[AF] | "D"[AF]>d B<G "A7"E>c |1,3 ~cB/c/ {c}e4 :|2,4 ~cB/c/ "D"d4 :|

%%sep 1 1 500

